**harm	**harte	**timestamp	**phrase	**leadinstrument	**kern
*M4/4	*M4/4	*	*	*	*
*C:	*C:	*	*	*	*C:
1r;	N	0	.	r	1r;
=1	=1	=1	=1	=1	=1
*>A_intro	*>A_intro	*>A_intro	*>A_intro	*>A_intro	*>A_intro
2I	C:maj	0.203	newline	r	2C 2e 2g
4IVc	F:maj/5	1.188	.	r	4f 4a 4C
4I	C:maj	1.68	.	r	4C 4e 4g
=2	=2	=2	=2	=2	=2
2I	C:maj	2.173	.	r	2C 2e 2g
4IVc	F:maj/5	3.157	.	r	4f 4a 4C
4I	C:maj	3.65	.	r	4C 4e 4g
=3	=3	=3	=3	=3	=3
2I	C:maj	4.142	.	r	2C 2e 2g
4IVc	F:maj/5	5.127	.	r	4f 4a 4C
4I	C:maj	5.619	.	r	4C 4e 4g
=4	=4	=4	=4	=4	=4
2I	C:maj	6.111	.	r	2C 2e 2g
4IVc	F:maj/5	7.096	.	r	4f 4a 4C
4I	C:maj	7.588	.	r	4C 4e 4g
=5	=5	=5	=5	=5	=5
*>B_chorus	*>B_chorus	*>B_chorus	*>B_chorus	*>B_chorus	*>B_chorus
1ii7	D:min7	8.081	newline	voice	1D 1f 1a 1cc
=6	=6	=6	=6	=6	=6
1ii7	D:min7	10.053	.	voice	1D 1f 1a 1cc
=7	=7	=7	=7	=7	=7
1ii7	D:min7	12.025	.	voice	1D 1f 1a 1cc
=8	=8	=8	=8	=8	=8
1ii7	D:min7	13.997	.	voice	1D 1f 1a 1cc
=9	=9	=9	=9	=9	=9
2I	C:maj	15.97	newline	voice	2C 2e 2g
4IVc	F:maj/5	16.958	.	voice	4f 4a 4C
4I	C:maj	17.452	.	voice	4C 4e 4g
=10	=10	=10	=10	=10	=10
2I	C:maj	17.946	.	voice	2C 2e 2g
4IVc	F:maj/5	18.934	.	voice	4f 4a 4C
4I	C:maj	19.429	.	voice	4C 4e 4g
=11	=11	=11	=11	=11	=11
*>A_verse	*>A_verse	*>A_verse	*>A_verse	*>A_verse	*>A_verse
2I	C:maj	19.923	newline	.	2C 2e 2g
4IVc	F:maj/5	20.897	.	.	4f 4a 4C
4I	C:maj	21.384	.	.	4C 4e 4g
=12	=12	=12	=12	=12	=12
2I	C:maj	21.872	.	.	2C 2e 2g
4IVc	F:maj/5	22.846	.	.	4f 4a 4C
4I	C:maj	23.334	.	.	4C 4e 4g
=13	=13	=13	=13	=13	=13
2I	C:maj	23.821	.	.	2C 2e 2g
4IVc	F:maj/5	24.795	.	.	4f 4a 4C
4I	C:maj	25.283	.	.	4C 4e 4g
=14	=14	=14	=14	=14	=14
2I	C:maj	25.77	.	.	2C 2e 2g
4IVc	F:maj/5	26.744	.	.	4f 4a 4C
4I	C:maj	27.232	.	.	4C 4e 4g
=15	=15	=15	=15	=15	=15
2I	C:maj	27.719	.	.	2C 2e 2g
4IVc	F:maj/5	28.693	.	.	4f 4a 4C
4I	C:maj	29.181	.	.	4C 4e 4g
=16	=16	=16	=16	=16	=16
2I	C:maj	29.668	.	.	2C 2e 2g
4IVc	F:maj/5	30.642	.	.	4f 4a 4C
4I	C:maj	31.13	.	.	4C 4e 4g
=17	=17	=17	=17	=17	=17
2I	C:maj	31.617	.	.	2C 2e 2g
4IVc	F:maj/5	32.591	.	.	4f 4a 4C
4I	C:maj	33.079	.	.	4C 4e 4g
=18	=18	=18	=18	=18	=18
2I	C:maj	33.566	.	.	2C 2e 2g
4IVc	F:maj/5	34.54	.	.	4f 4a 4C
4I	C:maj	35.028	.	.	4C 4e 4g
=19	=19	=19	=19	=19	=19
1ii7	D:min7	35.515	newline	.	1D 1f 1a 1cc
=20	=20	=20	=20	=20	=20
1ii7	D:min7	37.461	.	.	1D 1f 1a 1cc
=21	=21	=21	=21	=21	=21
1ii7	D:min7	39.407	.	.	1D 1f 1a 1cc
=22	=22	=22	=22	=22	=22
1ii7	D:min7	41.353	.	.	1D 1f 1a 1cc
=23	=23	=23	=23	=23	=23
2I	C:maj	43.299	newline	.	2C 2e 2g
4IVc	F:maj/5	44.265	.	.	4f 4a 4C
4I	C:maj	44.748	.	.	4C 4e 4g
=24	=24	=24	=24	=24	=24
2I	C:maj	45.231	.	.	2C 2e 2g
4IVc	F:maj/5	46.197	.	.	4f 4a 4C
4I	C:maj	46.68	.	.	4C 4e 4g
=25	=25	=25	=25	=25	=25
2I	C:maj	47.163	.	.	2C 2e 2g
4IVc	F:maj/5	48.128	.	.	4f 4a 4C
4I	C:maj	48.611	.	.	4C 4e 4g
=26	=26	=26	=26	=26	=26
2I	C:maj	49.094	.	.	2C 2e 2g
4IVc	F:maj/5	50.06	.	.	4f 4a 4C
4I	C:maj	50.543	.	.	4C 4e 4g
=27	=27	=27	=27	=27	=27
*>B2_chorus	*>B2_chorus	*>B2_chorus	*>B2_chorus	*>B2_chorus	*>B2_chorus
1ii7	D:min7	51.026	newline	.	1D 1f 1a 1cc
=28	=28	=28	=28	=28	=28
1ii7	D:min7	52.966	.	.	1D 1f 1a 1cc
=29	=29	=29	=29	=29	=29
1ii7	D:min7	54.906	.	.	1D 1f 1a 1cc
=30	=30	=30	=30	=30	=30
1ii7	D:min7	56.847	.	.	1D 1f 1a 1cc
=31	=31	=31	=31	=31	=31
2I	C:maj	58.787	newline	.	2C 2e 2g
4IVc	F:maj/5	59.77	.	.	4f 4a 4C
4I	C:maj	60.262	.	.	4C 4e 4g
=32	=32	=32	=32	=32	=32
2I	C:maj	60.753	.	.	2C 2e 2g
4IVc	F:maj/5	61.736	.	.	4f 4a 4C
4I	C:maj	62.228	.	.	4C 4e 4g
=33	=33	=33	=33	=33	=33
2I	C:maj	62.719	.	.	2C 2e 2g
4IVc	F:maj/5	63.702	.	.	4f 4a 4C
4I	C:maj	64.193	.	.	4C 4e 4g
=34	=34	=34	=34	=34	=34
*>B_chorus	*>B_chorus	*>B_chorus	*>B_chorus	*>B_chorus	*>B_chorus
1ii7	D:min7	64.685	newline	.	1D 1f 1a 1cc
=35	=35	=35	=35	=35	=35
1ii7	D:min7	66.635	.	.	1D 1f 1a 1cc
=36	=36	=36	=36	=36	=36
1ii7	D:min7	68.586	.	.	1D 1f 1a 1cc
=37	=37	=37	=37	=37	=37
1ii7	D:min7	70.536	.	.	1D 1f 1a 1cc
=38	=38	=38	=38	=38	=38
2I	C:maj	72.487	newline	.	2C 2e 2g
4IVc	F:maj/5	73.458	.	.	4f 4a 4C
4I	C:maj	73.943	.	.	4C 4e 4g
=39	=39	=39	=39	=39	=39
2I	C:maj	74.429	.	.	2C 2e 2g
4IVc	F:maj/5	75.4	.	.	4f 4a 4C
4I	C:maj	75.885	.	.	4C 4e 4g
=40	=40	=40	=40	=40	=40
*>A_verse	*>A_verse	*>A_verse	*>A_verse	*>A_verse	*>A_verse
2I	C:maj	76.37	newline	.	2C 2e 2g
4IVc	F:maj/5	77.342	.	.	4f 4a 4C
4I	C:maj	77.828	.	.	4C 4e 4g
=41	=41	=41	=41	=41	=41
2I	C:maj	78.314	.	.	2C 2e 2g
4IVc	F:maj/5	79.285	.	.	4f 4a 4C
4I	C:maj	79.771	.	.	4C 4e 4g
=42	=42	=42	=42	=42	=42
2I	C:maj	80.257	.	.	2C 2e 2g
4IVc	F:maj/5	81.228	.	.	4f 4a 4C
4I	C:maj	81.714	.	.	4C 4e 4g
=43	=43	=43	=43	=43	=43
2I	C:maj	82.2	.	.	2C 2e 2g
4IVc	F:maj/5	83.172	.	.	4f 4a 4C
4I	C:maj	83.658	.	.	4C 4e 4g
=44	=44	=44	=44	=44	=44
2I	C:maj	84.143	.	.	2C 2e 2g
4IVc	F:maj/5	85.115	.	.	4f 4a 4C
4I	C:maj	85.601	.	.	4C 4e 4g
=45	=45	=45	=45	=45	=45
2I	C:maj	86.087	.	.	2C 2e 2g
4IVc	F:maj/5	87.058	.	.	4f 4a 4C
4I	C:maj	87.544	.	.	4C 4e 4g
=46	=46	=46	=46	=46	=46
2I	C:maj	88.03	.	.	2C 2e 2g
4IVc	F:maj/5	89.001	.	.	4f 4a 4C
4I	C:maj	89.487	.	.	4C 4e 4g
=47	=47	=47	=47	=47	=47
2I	C:maj	89.973	.	.	2C 2e 2g
4IVc	F:maj/5	90.945	.	.	4f 4a 4C
4I	C:maj	91.43	.	.	4C 4e 4g
=48	=48	=48	=48	=48	=48
1ii7	D:min7	91.916	newline	.	1D 1f 1a 1cc
=49	=49	=49	=49	=49	=49
1ii7	D:min7	93.865	.	.	1D 1f 1a 1cc
=50	=50	=50	=50	=50	=50
1ii7	D:min7	95.814	.	.	1D 1f 1a 1cc
=51	=51	=51	=51	=51	=51
1ii7	D:min7	97.763	.	.	1D 1f 1a 1cc
=52	=52	=52	=52	=52	=52
2I	C:maj	99.712	newline	.	2C 2e 2g
4IVc	F:maj/5	100.695	.	.	4f 4a 4C
4I	C:maj	101.187	.	.	4C 4e 4g
=53	=53	=53	=53	=53	=53
2I	C:maj	101.679	.	.	2C 2e 2g
4IVc	F:maj/5	102.662	.	.	4f 4a 4C
4I	C:maj	103.153	.	.	4C 4e 4g
=54	=54	=54	=54	=54	=54
2I	C:maj	103.645	.	.	2C 2e 2g
4IVc	F:maj/5	104.628	.	.	4f 4a 4C
4I	C:maj	105.12	.	.	4C 4e 4g
=55	=55	=55	=55	=55	=55
2I	C:maj	105.611	.	.	2C 2e 2g
4IVc	F:maj/5	106.594	.	.	4f 4a 4C
4I	C:maj	107.086	.	.	4C 4e 4g
=56	=56	=56	=56	=56	=56
*>B2_chorus	*>B2_chorus	*>B2_chorus	*>B2_chorus	*>B2_chorus	*>B2_chorus
1ii7	D:min7	107.577	newline	.	1D 1f 1a 1cc
=57	=57	=57	=57	=57	=57
1ii7	D:min7	109.527	.	.	1D 1f 1a 1cc
=58	=58	=58	=58	=58	=58
1ii7	D:min7	111.476	.	.	1D 1f 1a 1cc
=59	=59	=59	=59	=59	=59
1ii7	D:min7	113.425	.	.	1D 1f 1a 1cc
=60	=60	=60	=60	=60	=60
2I	C:maj	115.374	newline	.	2C 2e 2g
4IVc	F:maj/5	116.346	.	.	4f 4a 4C
4I	C:maj	116.833	.	.	4C 4e 4g
=61	=61	=61	=61	=61	=61
2I	C:maj	117.319	.	.	2C 2e 2g
4IVc	F:maj/5	118.291	.	.	4f 4a 4C
4I	C:maj	118.777	.	.	4C 4e 4g
=62	=62	=62	=62	=62	=62
2I	C:maj	119.263	.	.	2C 2e 2g
4IVc	F:maj/5	120.236	.	.	4f 4a 4C
4I	C:maj	120.722	.	.	4C 4e 4g
=63	=63	=63	=63	=63	=63
*>B_chorus	*>B_chorus	*>B_chorus	*>B_chorus	*>B_chorus	*>B_chorus
1ii7	D:min7	121.208	newline	.	1D 1f 1a 1cc
=64	=64	=64	=64	=64	=64
1ii7	D:min7	123.15	.	.	1D 1f 1a 1cc
=65	=65	=65	=65	=65	=65
1ii7	D:min7	125.092	.	.	1D 1f 1a 1cc
=66	=66	=66	=66	=66	=66
1ii7	D:min7	127.033	.	.	1D 1f 1a 1cc
=67	=67	=67	=67	=67	=67
2I	C:maj	128.975	newline	.	2C 2e 2g
4IVc	F:maj/5	129.936	.	.	4f 4a 4C
4I	C:maj	130.416	.	.	4C 4e 4g
=68	=68	=68	=68	=68	=68
2I	C:maj	130.897	.	.	2C 2e 2g
4IVc	F:maj/5	131.857	.	.	4f 4a 4C
4I	C:maj	132.338	.	.	4C 4e 4g
=69	=69	=69	=69	=69	=69
*>A_verse	*>A_verse	*>A_verse	*>A_verse	*>A_verse	*>A_verse
2I	C:maj	132.818	newline	.	2C 2e 2g
4IVc	F:maj/5	133.794	.	.	4f 4a 4C
4I	C:maj	134.282	.	.	4C 4e 4g
=70	=70	=70	=70	=70	=70
2I	C:maj	134.769	.	.	2C 2e 2g
4IVc	F:maj/5	135.745	.	.	4f 4a 4C
4I	C:maj	136.233	.	.	4C 4e 4g
=71	=71	=71	=71	=71	=71
2I	C:maj	136.721	.	.	2C 2e 2g
4IVc	F:maj/5	137.696	.	.	4f 4a 4C
4I	C:maj	138.184	.	.	4C 4e 4g
=72	=72	=72	=72	=72	=72
2I	C:maj	138.672	.	.	2C 2e 2g
4IVc	F:maj/5	139.647	.	.	4f 4a 4C
4I	C:maj	140.135	.	.	4C 4e 4g
=73	=73	=73	=73	=73	=73
2I	C:maj	140.623	.	.	2C 2e 2g
4IVc	F:maj/5	141.599	.	.	4f 4a 4C
4I	C:maj	142.086	.	.	4C 4e 4g
=74	=74	=74	=74	=74	=74
2I	C:maj	142.574	.	.	2C 2e 2g
4IVc	F:maj/5	143.55	.	.	4f 4a 4C
4I	C:maj	144.038	.	.	4C 4e 4g
=75	=75	=75	=75	=75	=75
2I	C:maj	144.525	.	.	2C 2e 2g
4IVc	F:maj/5	145.501	.	.	4f 4a 4C
4I	C:maj	145.989	.	.	4C 4e 4g
=76	=76	=76	=76	=76	=76
2I	C:maj	146.477	.	.	2C 2e 2g
4IVc	F:maj/5	147.452	.	.	4f 4a 4C
4I	C:maj	147.94	.	.	4C 4e 4g
=77	=77	=77	=77	=77	=77
1ii7	D:min7	148.428	newline	.	1D 1f 1a 1cc
=78	=78	=78	=78	=78	=78
1ii7	D:min7	150.368	.	.	1D 1f 1a 1cc
=79	=79	=79	=79	=79	=79
1ii7	D:min7	152.308	.	.	1D 1f 1a 1cc
=80	=80	=80	=80	=80	=80
1ii7	D:min7	154.249	.	.	1D 1f 1a 1cc
=81	=81	=81	=81	=81	=81
2I	C:maj	156.189	newline	.	2C 2e 2g
4IVc	F:maj/5	157.152	.	.	4f 4a 4C
4I	C:maj	157.633	.	.	4C 4e 4g
=82	=82	=82	=82	=82	=82
2I	C:maj	158.115	.	.	2C 2e 2g
4IVc	F:maj/5	159.078	.	.	4f 4a 4C
4I	C:maj	159.559	.	.	4C 4e 4g
=83	=83	=83	=83	=83	=83
2I	C:maj	160.041	.	.	2C 2e 2g
4IVc	F:maj/5	161.004	.	.	4f 4a 4C
4I	C:maj	161.485	.	.	4C 4e 4g
=84	=84	=84	=84	=84	=84
2I	C:maj	161.966	.	.	2C 2e 2g
4IVc	F:maj/5	162.929	.	.	4f 4a 4C
4I	C:maj	163.411	.	.	4C 4e 4g
=85	=85	=85	=85	=85	=85
*>B2_chorus	*>B2_chorus	*>B2_chorus	*>B2_chorus	*>B2_chorus	*>B2_chorus
1ii7	D:min7	163.892	newline	.	1D 1f 1a 1cc
=86	=86	=86	=86	=86	=86
1ii7	D:min7	165.82	.	.	1D 1f 1a 1cc
=87	=87	=87	=87	=87	=87
1ii7	D:min7	167.747	.	.	1D 1f 1a 1cc
=88	=88	=88	=88	=88	=88
1ii7	D:min7	169.674	.	.	1D 1f 1a 1cc
=89	=89	=89	=89	=89	=89
2I	C:maj	171.601	newline	fadeout	2C 2e 2g
4IVc	F:maj/5	172.584	.	fadeout	4f 4a 4C
4I	C:maj	173.076	.	fadeout	4C 4e 4g
=90	=90	=90	=90	=90	=90
2I	C:maj	173.567	.	fadeout	2C 2e 2g
4IVc	F:maj/5	174.55	.	fadeout	4f 4a 4C
4I	C:maj	175.042	.	fadeout	4C 4e 4g
=91	=91	=91	=91	=91	=91
2I	C:maj	175.533	.	fadeout	2C 2e 2g
4IVc	F:maj/5	176.516	.	fadeout	4f 4a 4C
4I	C:maj	177.008	.	fadeout	4C 4e 4g
=92	=92	=92	=92	=92	=92
*>B_chorus	*>B_chorus	*>B_chorus	*>B_chorus	*>B_chorus	*>B_chorus
1ii7	D:min7	177.499	newline	fadeout	1D 1f 1a 1cc
=93	=93	=93	=93	=93	=93
1ii7	D:min7	179.429	.	fadeout	1D 1f 1a 1cc
=94	=94	=94	=94	=94	=94
1ii7	D:min7	181.359	.	fadeout	1D 1f 1a 1cc
=95	=95	=95	=95	=95	=95
1ii7	D:min7	183.29	.	fadeout	1D 1f 1a 1cc
=96	=96	=96	=96	=96	=96
2I	C:maj	185.22	newline	voice	2C 2e 2g
4IVc	F:maj/5	185.707	.	voice	4f 4a 4C
4I	C:maj	185.951	.	voice	4C 4e 4g
=97	=97	=97	=97	=97	=97
2I	C:maj	186.195	.	voice	2C 2e 2g
4IVc	F:maj/5	186.683	.	voice	4f 4a 4C
4I	C:maj	186.926	.	voice	4C 4e 4g
1r;	N	187.17	.	r	1r;
1r;	N	188.552	.	r	1r;
*-	*-	*-	*-	*-	*-
!!!OTL: Baby Don't Go
!!!COC: Sonny & Cher
!!!BillboardChartDate: 1965/09/18
!!!BillboardPeak: 8
!!!BillboardWeeksOnChart: 12
!!!SampleTargetRank: 23
!!!SampleActualRank: 22
!!!SampleID#: 1212
!!!RDF**harmony: **recip + pitch class of root + harmonic quality
!!!RDF**harte: Chris Harte's syntax, used by MIREX
!!!RDF**phrase: newline = linebreak in original McGill transcription
!!!RDF**timestamp: McGill audio timestamp in seconds
!!!RDF**leadinstrument: original McGill primary instrumentation annotation
!!!RDT: 2017/01/12/
!!!ENC: Nathaniel Condit-Schultz
!!!EST: Awating manual error checking and editing.
